svgs/settings.svg

<svg width="192" height="192" viewBox="0 0 192 192" fill="none" xmlns="http://www.w3.org/2000/svg">
<path d="M80.1602 29.0543L74.2023 28.345L74.2023 28.345L80.1602 29.0543ZM111.84 29.0543L105.882 29.7636V29.7636L111.84 29.0543ZM146.057 48.8095L143.692 43.2951L143.692 43.2951L146.057 48.8095ZM156.138 52.1619L161.334 49.1619V49.1619L156.138 52.1619ZM164.034 65.838L169.23 62.838V62.838L164.034 65.838ZM161.897 76.2448L158.303 71.4397L158.303 71.4397L161.897 76.2448ZM161.897 115.755L165.49 110.95L161.897 115.755ZM164.034 126.162L169.23 129.162V129.162L164.034 126.162ZM156.138 139.838L150.942 136.838L150.942 136.838L156.138 139.838ZM146.057 143.191L148.421 137.676L146.057 143.191ZM111.84 162.946L117.798 163.655L111.84 162.946ZM80.1602 162.946L74.2023 163.655L74.2023 163.655L80.1602 162.946ZM45.9433 143.191L43.5785 137.676H43.5785L45.9433 143.191ZM35.8621 139.838L30.666 142.838H30.666L35.8621 139.838ZM27.9662 126.162L33.1624 123.162L27.9662 126.162ZM30.1035 115.755L33.6967 120.56H33.6967L30.1035 115.755ZM30.1034 76.2448L26.5102 81.0499L26.5102 81.0499L30.1034 76.2448ZM27.9662 65.838L33.1623 68.838H33.1623L27.9662 65.838ZM35.8621 52.162L30.6659 49.162L30.6659 49.162L35.8621 52.162ZM45.9432 48.8095L43.5785 54.3238H43.5785L45.9432 48.8095ZM53.7922 52.1753L51.4275 57.6897L53.7922 52.1753ZM53.7922 139.825L56.1569 145.339L53.7922 139.825ZM36.2356 111.17L32.6424 106.365L36.2356 111.17ZM113.059 152.705L119.017 153.415L113.059 152.705ZM152.913 82.9626L149.32 78.1576L152.913 82.9626ZM136.544 52.8889L138.908 58.4033L136.544 52.8889ZM113.059 39.2946L107.101 40.0039L113.059 39.2946ZM88.1041 16C81.0123 16 75.0406 21.3029 74.2023 28.345L86.1181 29.7636C86.2379 28.7576 87.091 28 88.1041 28V16ZM103.896 16H88.1041V28H103.896V16ZM117.798 28.345C116.959 21.3029 110.988 16 103.896 16V28C104.909 28 105.762 28.7576 105.882 29.7636L117.798 28.345ZM119.017 38.5854L117.798 28.345L105.882 29.7636L107.101 40.0039L119.017 38.5854ZM143.692 43.2951L134.179 47.3745L138.908 58.4033L148.421 54.3238L143.692 43.2951ZM161.334 49.1619C157.788 43.0202 150.21 40.5001 143.692 43.2951L148.421 54.3238C149.353 53.9245 150.435 54.2845 150.942 55.1619L161.334 49.1619ZM169.23 62.838L161.334 49.1619L150.942 55.1619L158.838 68.838L169.23 62.838ZM165.49 81.0499C171.169 76.8028 172.776 68.9797 169.23 62.838L158.838 68.838C159.344 69.7154 159.115 70.833 158.303 71.4397L165.49 81.0499ZM156.506 87.7677L165.49 81.0499L158.303 71.4397L149.32 78.1576L156.506 87.7677ZM165.49 110.95L156.506 104.232L149.32 113.842L158.303 120.56L165.49 110.95ZM169.23 129.162C172.776 123.02 171.169 115.197 165.49 110.95L158.303 120.56C159.115 121.167 159.344 122.285 158.838 123.162L169.23 129.162ZM161.334 142.838L169.23 129.162L158.838 123.162L150.942 136.838L161.334 142.838ZM143.692 148.705C150.21 151.5 157.788 148.98 161.334 142.838L150.942 136.838C150.435 137.715 149.353 138.075 148.421 137.676L143.692 148.705ZM134.179 144.625L143.692 148.705L148.421 137.676L138.909 133.597L134.179 144.625ZM117.798 163.655L119.017 153.415L107.101 151.996L105.882 162.236L117.798 163.655ZM103.896 176C110.988 176 116.959 170.697 117.798 163.655L105.882 162.236C105.762 163.242 104.909 164 103.896 164V176ZM88.1041 176H103.896V164H88.1041V176ZM74.2023 163.655C75.0406 170.697 81.0123 176 88.1041 176V164C87.091 164 86.2379 163.242 86.1181 162.236L74.2023 163.655ZM73.1899 155.151L74.2023 163.655L86.1181 162.236L85.1057 153.732L73.1899 155.151ZM51.4275 134.31L43.5785 137.676L48.308 148.705L56.1569 145.339L51.4275 134.31ZM43.5785 137.676C42.6474 138.075 41.5648 137.715 41.0583 136.838L30.666 142.838C34.2119 148.98 41.7901 151.5 48.308 148.705L43.5785 137.676ZM41.0583 136.838L33.1624 123.162L22.7701 129.162L30.666 142.838L41.0583 136.838ZM33.1624 123.162C32.6558 122.285 32.8853 121.167 33.6967 120.56L26.5102 110.95C20.8308 115.197 19.2242 123.02 22.7701 129.162L33.1624 123.162ZM33.6967 120.56L39.8289 115.975L32.6424 106.365L26.5102 110.95L33.6967 120.56ZM26.5102 81.0499L32.6424 85.6356L39.8289 76.0254L33.6966 71.4397L26.5102 81.0499ZM22.77 62.838C19.2241 68.9797 20.8307 76.8028 26.5102 81.0499L33.6966 71.4397C32.8853 70.833 32.6558 69.7154 33.1623 68.838L22.77 62.838ZM30.6659 49.162L22.77 62.838L33.1623 68.838L41.0582 55.162L30.6659 49.162ZM48.3079 43.2951C41.7901 40.5001 34.2118 43.0203 30.6659 49.162L41.0582 55.162C41.5648 54.2846 42.6474 53.9245 43.5785 54.3238L48.3079 43.2951ZM56.1569 46.661L48.3079 43.2951L43.5785 54.3238L51.4275 57.6897L56.1569 46.661ZM74.2023 28.345L73.1899 36.849L85.1057 38.2676L86.1181 29.7636L74.2023 28.345ZM72.448 55.8969C78.5264 52.4705 84.1382 46.3948 85.1057 38.2676L73.1899 36.849C72.8079 40.0576 70.4215 43.264 66.5553 45.4435L72.448 55.8969ZM51.4275 57.6897C58.7122 60.8136 66.483 59.2596 72.448 55.8969L66.5553 45.4435C62.8507 47.5318 59.0739 47.9119 56.1569 46.661L51.4275 57.6897ZM49 96C49 88.9004 46.4515 80.9777 39.8289 76.0254L32.6424 85.6356C35.3597 87.6675 37 91.4371 37 96H49ZM72.4481 136.103C66.483 132.74 58.7122 131.186 51.4275 134.31L56.1569 145.339C59.074 144.088 62.8507 144.468 66.5553 146.557L72.4481 136.103ZM39.8289 115.975C46.4515 111.022 49 103.1 49 96H37C37 100.563 35.3597 104.333 32.6424 106.365L39.8289 115.975ZM118.507 135.55C112.971 138.848 107.99 144.532 107.101 151.996L119.017 153.415C119.346 150.65 121.335 147.833 124.649 145.858L118.507 135.55ZM138.909 133.597C131.815 130.555 124.24 132.134 118.507 135.55L124.649 145.858C128.031 143.843 131.521 143.486 134.179 144.625L138.909 133.597ZM85.1057 153.732C84.1382 145.605 78.5264 139.53 72.4481 136.103L66.5553 146.557C70.4215 148.736 72.8079 151.942 73.1899 155.151L85.1057 153.732ZM141 96C141 102.389 143.398 109.414 149.32 113.842L156.506 104.232C154.374 102.638 153 99.6678 153 96H141ZM149.32 78.1576C143.398 82.5859 141 89.6107 141 96H153C153 92.3322 154.374 89.3623 156.506 87.7677L149.32 78.1576ZM118.507 56.4504C124.24 59.8664 131.815 61.4451 138.908 58.4033L134.179 47.3745C131.521 48.5144 128.031 48.1565 124.649 46.1415L118.507 56.4504ZM107.101 40.0039C107.99 47.4684 112.971 53.1522 118.507 56.4504L124.649 46.1415C121.335 44.1669 119.346 41.3502 119.017 38.5854L107.101 40.0039Z" fill="black"/>
<path d="M96 120C109.255 120 120 109.255 120 96C120 82.7452 109.255 72 96 72C82.7452 72 72 82.7452 72 96C72 109.255 82.7452 120 96 120Z" stroke="black" stroke-width="12" stroke-linecap="round" stroke-linejoin="round"/>
</svg>

<svg xmlns="http://www.w3.org/2000/svg" width="192" height="192" fill="none" xmlns:v="https://vecta.io/nano"><path d="M80.16 29.054l-5.958-.709h0l5.958.709zm31.68 0l-5.958.709h0l5.958-.709zm34.217 19.755l-2.365-5.514h0l2.365 5.514zm10.081 3.352l5.196-3h0l-5.196 3zm7.896 13.676l5.196-3h0l-5.196 3zm-2.137 10.407l-3.594-4.805h0l3.594 4.805zm0 39.51l3.593-4.805-3.593 4.805zm2.137 10.407l5.196 3h0l-5.196-3zm-7.896 13.676l-5.196-3h0l5.196 3zm-10.081 3.353l2.364-5.515-2.364 5.515zm-34.217 19.755l5.958.709-5.958-.709zm-31.68 0l-5.958.709h0l5.958-.709zm-34.217-19.755l-2.365-5.515h0l2.365 5.515zm-10.081-3.353l-5.196 3h0l5.196-3zm-7.896-13.676l5.196-3-5.196 3zm2.137-10.407l3.593 4.805h0l-3.593-4.805zm0-39.51L26.51 81.05h0l3.593-4.805zm-2.137-10.407l5.196 3h0l-5.196-3zm7.896-13.676l-5.196-3h0l5.196 3zm10.081-3.352l-2.365 5.514h0l2.365-5.514zm7.849 3.366l-2.365 5.514 2.365-5.514zm0 87.65l2.365 5.514-2.365-5.514zM36.236 111.17l-3.593-4.805 3.593 4.805zm76.823 41.535l5.958.71-5.958-.71zm39.854-69.742l-3.593-4.805 3.593 4.805zm-16.369-30.074l2.364 5.514-2.364-5.514zm-23.485-13.594l-5.958.709 5.958-.709zM88.104 16a14 14 0 0 0-13.902 12.345l11.916 1.419A2 2 0 0 1 88.104 28V16zm15.792 0H88.104v12h15.792V16zm13.902 12.345C116.959 21.303 110.988 16 103.896 16v12a2 2 0 0 1 1.986 1.764l11.916-1.419zm1.219 10.24l-1.219-10.24-11.916 1.419 1.219 10.24 11.916-1.419zm24.675 4.71l-9.513 4.079 4.729 11.029 9.513-4.08-4.729-11.029zm17.642 5.867a14 14 0 0 0-17.642-5.867l4.729 11.029a2 2 0 0 1 2.521.838l10.392-6zm7.896 13.676l-7.896-13.676-10.392 6 7.896 13.676 10.392-6zm-3.74 18.212c5.679-4.247 7.286-12.07 3.74-18.212l-10.392 6a2 2 0 0 1-.535 2.602l7.187 9.61zm-8.984 6.718l8.984-6.718-7.187-9.61-8.983 6.718 7.186 9.61zm8.984 23.182l-8.984-6.718-7.186 9.61 8.983 6.718 7.187-9.61zm3.74 18.212c3.546-6.142 1.939-13.965-3.74-18.212l-7.187 9.61a2 2 0 0 1 .535 2.602l10.392 6zm-7.896 13.676l7.896-13.676-10.392-6-7.896 13.676 10.392 6zm-17.642 5.867a14 14 0 0 0 17.642-5.867l-10.392-6a2 2 0 0 1-2.521.838l-4.729 11.029zm-9.513-4.08l9.513 4.08 4.729-11.029-9.512-4.079-4.73 11.028zm-16.381 19.03l1.219-10.24-11.916-1.419-1.219 10.24 11.916 1.419zM103.896 176c7.092 0 13.063-5.303 13.902-12.345l-11.916-1.419a2 2 0 0 1-1.986 1.764v12zm-15.792 0h15.792v-12H88.104v12zm-13.902-12.345A14 14 0 0 0 88.104 176v-12a2 2 0 0 1-1.986-1.764l-11.916 1.419zm-1.012-8.504l1.012 8.504 11.916-1.419-1.012-8.504-11.916 1.419zM51.428 134.31l-7.849 3.366 4.73 11.029 7.849-3.366-4.729-11.029zm-7.849 3.366a2 2 0 0 1-2.52-.838l-10.392 6a14 14 0 0 0 17.642 5.867l-4.73-11.029zm-2.52-.838l-7.896-13.676-10.392 6 7.896 13.676 10.392-6zm-7.896-13.676a2 2 0 0 1 .534-2.602l-7.186-9.61a14 14 0 0 0-3.74 18.212l10.392-6zm.534-2.602l6.132-4.585-7.186-9.61-6.132 4.585 7.186 9.61zM26.51 81.05l6.132 4.586 7.186-9.61-6.132-4.586-7.186 9.61zm-3.74-18.212a14 14 0 0 0 3.74 18.212l7.186-9.61a2 2 0 0 1-.534-2.602l-10.392-6zm7.896-13.676L22.77 62.838l10.392 6 7.896-13.676-10.392-6zm17.642-5.867a14 14 0 0 0-17.642 5.867l10.392 6a2 2 0 0 1 2.52-.838l4.729-11.029zm7.849 3.366l-7.849-3.366-4.729 11.029 7.849 3.366 4.729-11.029zm18.045-18.316l-1.012 8.504 11.916 1.419 1.012-8.504-11.916-1.419zm-1.754 27.552c6.078-3.426 11.69-9.502 12.658-17.629L73.19 36.849c-.382 3.209-2.768 6.415-6.635 8.595l5.893 10.453zm-21.02 1.793c7.285 3.124 15.056 1.57 21.02-1.793l-5.893-10.453c-3.705 2.088-7.481 2.468-10.398 1.218L51.428 57.69zM49 96c0-7.1-2.548-15.022-9.171-19.975l-7.186 9.61C35.36 87.668 37 91.437 37 96h12zm23.448 40.103c-5.965-3.363-13.736-4.917-21.021-1.793l4.729 11.029c2.917-1.251 6.694-.871 10.398 1.218l5.893-10.454zm-32.619-20.128C46.452 111.022 49 103.1 49 96H37c0 4.563-1.64 8.333-4.358 10.365l7.186 9.61zm78.678 19.575c-5.536 3.298-10.517 8.982-11.406 16.446l11.916 1.419c.329-2.765 2.318-5.582 5.632-7.557l-6.142-10.308zm20.402-1.953c-7.094-3.042-14.669-1.463-20.402 1.953l6.142 10.308c3.382-2.015 6.872-2.372 9.53-1.233l4.73-11.028zm-53.803 20.135c-.968-8.127-6.579-14.202-12.658-17.629l-5.893 10.454c3.866 2.179 6.253 5.385 6.635 8.594l11.916-1.419zM141 96c0 6.389 2.398 13.414 8.32 17.842l7.186-9.61C154.374 102.638 153 99.668 153 96h-12zm8.32-17.842C143.398 82.586 141 89.611 141 96h12c0-3.668 1.374-6.638 3.506-8.232l-7.186-9.61zM118.507 56.45c5.733 3.416 13.308 4.995 20.401 1.953l-4.729-11.029c-2.658 1.14-6.148.782-9.53-1.233l-6.142 10.309zm-11.406-16.446c.889 7.465 5.87 13.148 11.406 16.447l6.142-10.309c-3.314-1.975-5.303-4.791-5.632-7.556l-11.916 1.419z" fill="#000"/><path d="M96 120c13.255 0 24-10.745 24-24s-10.745-24-24-24-24 10.745-24 24 10.745 24 24 24z" stroke="#000" stroke-width="12" stroke-linejoin="round"/></svg>
